!!!COM: Richard Strauss
!!!CNT: Deutscher
!!!TXO: Deutsche 
!!!OTL: "Wozu noch, Ma2dchen"...
!!!OPS: Opus 19
!!!ONM: No. 1
!!!LYR: A. Fr. Graf. v. Schack
!!!ENC: Brian Bice
!!!YOR: Lieder, Complete Edition, vol. 1
!!!ODT: 1888/
!!NB: Vocal melody and text only encoded.
**kern	**silbe
*clefG2	*
*k[b-]	*
*M3/4	*
=0	=0
4.r	.
{8cc	{Wo-
8a	-zu
8g	noch,
=1	=1
4r	.
8dd	Ma2d-
8cc	-chen,
8r	.
16bn	soll
16cc	es
=2	=2
8ff	from-
8bn}	-men,}
8r	.
{8bn	{dass
8a#	du
8b	vor
=3	=3
2gg	mir
4b-	Ver-
=4	=4
8.dd	-stel-
16cc	-lung-
2f}	-u2bst?}
=5	=5
8r	.
{8dd	{Heiss'
4.b-	froh
8cc	das
=6	=6
4.dd	neu-
8cc	-e
[4ff	Glu2ck
=7	=7
8ff]	|
8ee	will-
(8gg	-kom-
8ff	|
8dd)	|
8b-}	-men}
=8	=8
8r	.
{8a	{und
8a	sag'
8b-	es
8cc	of-
8g	-fen,
=9	=9
4r	.
4.cc	dass
8dd	du
=10	=10
2.ee}	liebst!}
=11	=11
4r	.
8r	.
{8a	{An
8a	dei-
8a	-nes
=12	=12
4.f#	Bu-
8f#	-sens
(16f#	ho2-
16e)	|
(16dd	-herm
16cc#)	|
=13	=13
4ee	Schwel-
4dd}	-len,}
8r	.
{8dd	{dem
=14	=14
8.gg	Wan-
16ff#	-gen-
4.ee#	-rot,
8ff#	das
=15	=15
2cc#	kommt
4g#	und
=16	=16
4.a#}	geht,}
{8f#	{ward
(16g#	dein
16a#)	|
(16bn	Ge-
16cc#)	|
=17	=17
4.dd	-heim-
8dd	-niss
8cc#	von
8dd	den
=18	=18
4gg	Quel-
4ff#}	-len,}
8r	.
{8ee	{den
=19	=19
8.aa	Blu-
16ee	-men-
8a	-gei-
8bn	-stern
(16cc#	la2ngst
8bn)	|
16a	er-
=20	=20
2ff#}	-spa2ht;}
8r	.
{8ff#	{die
=21	=21
4ffn	Wo-
4ee	-gen
16dd	mur-
16ee	-meln's
16ff	in
16dd	den
=22	=22
4cc	Grot-
4cc}	-ten,}
8r	.
{8cc	{es
=23	=23
8.bn	flu2-
16bn	-stert's
4.bn	leis'
8dd	der
=24	=24
8.dd	A-
16g	-bend-
2g}	-wind,}
=25	=25
8r	.
{8cc#	{wo
8cc#	du
8cc#	vor-
8dd	-bei
8g	gehst,
=26	=26
8r	.
4cc#	ho2rst
8cc#	du's
8dd	spot-
8g}	-ten:}
=27	=27
8r	.
{8cc#	{Wir
16cc#	wis-
16dd	-sen
16ee	es
16dd	seit
8gg	lan-
8g	-ge,
=28	=28
4r	.
4ee	Kind!
4r	.
=29	=29
4ee}	Kind!}
4r	.
4r	.
=31	=31
4r	.
8r	.
{8cc	{Wo-
8a	-zu
8g	noch,
=32	=32
4r	.
8dd	Ma2d-
8cc	-chen,
8r	.
16bn	soll
16cc	es
=33	=33
8ff	from-
8bn}	-men,}
8r	.
{8bn	{dass
8a#	du
8b	vor
=34	=34
2gg	mir
4b-	Ver-
=35	=35
8.dd	-stel-
16cc	-lung
[2ff	u2bst?
=36	=36
2ff]}	|}
4r	.
*-	*-
